X:1
T:Title
%%score { ( 1 3 ) | 2 }
L:1/8
M:4/4
K:Bb
V:1 treble nm="Grand Piano"
V:3 treble 
V:2 bass 
V:1
 z4 z[Q:1/4=100] F D>E | z D D>D Dd c>B | G6 z2 | z D D>D DB A>B | c6 z2 | B6 z2 | e6 z2 | %7
 z D D>D DB A>c |[M:3/4] [B,DB]6 |[M:1/4] F2 |[M:4/4] e>d e4 F2 | [Fd]>[=E_d] =d2- d[FB][EA][DB] | %12
 c4- ce d>c |[M:5/8] [Fd]- [Fd]3 z |[M:3/8] [DF][B,D]>[DF] |[M:4/4] [DB]4- [DB][Fd] [Fc]>[_AB] | %16
 [Ge]4- [Ge][EG][FA][GB] | F4- FB A>c |[M:5/8] [DB]- [DB]3 z |] %19
V:2
 z8 | z [B,,F,] [B,,F,]>[B,,F,] .[B,,F,]2 z2 | z [E,B,] [E,B,]>[E,B,] .[E,B,]2 z2 | %3
 z [B,,F,] [B,,F,]>[B,,F,] .[B,,F,]2 z2 | z [F,A,] [F,A,]>[F,A,] .[F,A,]2 z2 | %5
 z [B,,F,] [B,,F,]>[B,,F,] .[B,,F,]2 z2 | z [E,B,] [E,B,]>[E,B,] .[E,B,]2 z2 | %7
 z [F,B,] [F,B,]>[F,B,] [F,B,][F,DF] [F,CE]>[F,A,E] |[M:3/4] B,,6 |[M:1/4] F,2 | %10
[M:4/4] [F,CF]>[F,=B,F] [F,CF]4 F,2 | %11
 [B,,B,]>[B,,B,][K:treble] [B,F]2- [B,F][K:bass][D,B,][C,F,][B,,F,] | %12
 [F,A,F]4- [F,A,F][F,CF] [F,B,F]>[F,A,F] |[M:5/8] [B,,B,]- [B,,B,]3 z | %14
[M:3/8] [B,,B,][B,,F,]>[B,,F,] |[M:4/4] [B,,F,]4- [B,,F,][B,,B,] [C,A,]>[D,B,] | %16
 [E,B,]4- [E,B,][E,B,][E,B,][E,B,] | [F,B,D]4- [F,B,D][F,DF] [F,CE]>[F,A,E] | %18
[M:5/8] [B,,B,]- [B,,B,]3 z |] %19
V:3
 x8 | F6 z2 | z E E>E EB A>G | F6 z2 | z F F>F FF D>F | z D D>D Dd c>B | z G G>G GG A>B | F6 z2 | %8
[M:3/4] x6 |[M:1/4] x2 |[M:4/4] x8 | x8 | x8 |[M:5/8] x5 |[M:3/8] x3 |[M:4/4] x8 | x8 | x8 | %18
[M:5/8] x5 |] %19

